packages/astro-frontend/public/img/072-business-report.svg

<svg width="48" height="48" viewBox="0 0 48 48" fill="none" xmlns="http://www.w3.org/2000/svg">
<path d="M14.16 41.356L33.1222 41.8709C36.8204 41.9647 38.2349 40.8694 38.0793 36.8396L37.2124 14.2985C37.2102 14.2301 37.1876 14.164 37.1498 14.1072C36.3593 12.948 32.2916 7.18505 31.1338 6.40105C31.0553 6.08323 30.624 6.01487 30.464 6.32251C24.8495 6.14142 19.1702 6.23451 13.5738 6.61196C11 6.78505 10.352 7.66869 10.3018 9.86942C10.3018 9.86942 10.2916 12.1203 9.90983 37.0956C9.86473 40.1014 10.7469 41.2629 14.16 41.356ZM32.5447 13.0905L32.9862 13.532L32.4378 14.0803L31.8698 13.5123L32.5426 12.8389C32.4764 12.9109 32.4756 13.0214 32.5447 13.0905ZM32.1804 14.3378L32.1513 14.3669C32.1273 14.3909 32.1236 14.4221 32.1156 14.4527C31.8073 14.4127 31.4742 14.3421 31.1702 14.2112L31.6116 13.7698L32.1804 14.3378ZM32.7927 14.5043C32.7898 14.4621 32.7767 14.4192 32.744 14.3865L32.6946 14.3371L33.2429 13.7887L33.7447 14.2905C33.7047 14.3596 33.7033 14.4454 33.7622 14.5051C33.7724 14.5152 33.7876 14.5131 33.7993 14.5203C33.4633 14.5312 33.128 14.5254 32.7927 14.5043ZM33.5004 13.532L33.9506 13.0818L34.44 13.5712L33.9898 14.0214L33.5004 13.532ZM34.4022 14.4978C34.3978 14.4585 34.3869 14.4192 34.3571 14.3887L34.2466 14.2781L34.6967 13.828L35.1578 14.2891C35.2291 14.3603 35.344 14.3603 35.4153 14.2891C35.4866 14.2178 35.4866 14.1029 35.4153 14.0316L34.9542 13.5705L35.5076 13.0171C35.7789 13.4032 36.0458 13.7865 36.3018 14.1603C35.6815 14.3254 35.0458 14.444 34.4022 14.4978ZM35.2967 12.7145L34.6975 13.3145L34.208 12.8251L34.2153 12.8178C34.2866 12.7465 34.2866 12.6316 34.2153 12.5603C34.144 12.4891 34.0291 12.4891 33.9578 12.5603L33.9506 12.5676L33.8633 12.4803C33.792 12.4091 33.6771 12.4091 33.6058 12.4803C33.5346 12.5516 33.5346 12.6665 33.6058 12.7378L33.6931 12.8251L33.2429 13.2752L32.8015 12.8338C32.7316 12.764 32.6211 12.7647 32.5498 12.8316L32.9542 12.4272C33.0255 12.356 33.0255 12.2411 32.9542 12.1698C32.8829 12.0985 32.768 12.0985 32.6967 12.1698L31.6116 13.2549L31.2684 12.9116C31.0996 12.7429 30.8407 12.9981 31.0109 13.1691L31.3542 13.5123L30.8422 14.0243C29.9527 13.3916 30.1229 12.2018 30.3178 11.1189L31.0007 7.31669C32.5709 9.0156 34.0146 10.9043 35.2967 12.7145ZM10.6371 37.1072C11.0182 12.1545 11.0291 9.88614 11.0291 9.88614C11.0698 8.11669 11.3898 7.4876 13.6226 7.33851C19.2138 6.96105 24.744 6.86723 30.312 7.04323L29.6036 10.9901C29.0553 14.0389 29.9491 15.2658 33.4676 15.2658C34.4931 15.2658 35.52 15.1254 36.5062 14.8629L37.3527 36.8658C37.4822 40.252 36.6146 41.2476 33.1418 41.1421L14.1796 40.6272C11.1724 40.5472 10.5964 39.7116 10.6371 37.1072Z" fill="black"/>
<path d="M16.1928 23.1359C16.2342 23.1977 16.2561 23.237 16.3768 23.2763C17.8117 24.3752 19.5666 25.0457 21.3877 25.1243C22.9019 25.1912 24.4793 24.8384 25.7462 24.0072C26.795 23.3192 27.6575 22.3003 28.2422 21.0603C29.4793 18.4363 29.2066 15.2035 27.5462 12.8246C25.2459 9.5279 20.5324 8.17081 16.667 10.4254C11.7164 13.3126 12.3397 18.4312 14.6619 21.5577C15.1019 22.1519 15.6226 22.6755 16.1928 23.1359ZM21.2073 17.5577C22.3186 18.7679 23.5557 20.0588 24.9201 21.2443C24.9252 21.2515 24.923 21.261 24.9295 21.2668C24.9375 21.2748 24.9499 21.2726 24.9593 21.2792C25.2132 21.4995 25.4728 21.7148 25.7353 21.9257L25.1615 22.4988L24.7659 22.1032L24.9332 21.9359C25.0044 21.8646 25.0044 21.7497 24.9332 21.6784C24.8619 21.6072 24.747 21.6072 24.6757 21.6784L24.5084 21.8464L24.0888 21.4268C24.0175 21.3555 23.9026 21.3555 23.8321 21.4268C23.7608 21.4981 23.7608 21.613 23.8321 21.6843L24.2517 22.1039L23.7259 22.6297L23.0452 21.949C22.9739 21.8777 22.859 21.8777 22.7884 21.949C22.7172 22.0203 22.7172 22.1352 22.7884 22.2064L23.4692 22.8872L22.7862 23.5701L21.8946 22.6784L22.7957 21.7774C22.867 21.7061 22.867 21.5912 22.7957 21.5199C22.7244 21.4486 22.6095 21.4486 22.539 21.5199L21.6379 22.421L21.2706 22.0537C21.1993 21.9824 21.0844 21.9824 21.0139 22.0537C20.9426 22.125 20.9426 22.2399 21.0139 22.3112L21.3812 22.6784L20.4895 23.5701L19.755 22.8355L21.2161 21.3752C21.2873 21.3039 21.2873 21.189 21.2161 21.1177C21.1448 21.0464 21.0299 21.0464 20.9586 21.1177L19.4975 22.5781L19.1295 22.2101C19.0582 22.1388 18.9433 22.1388 18.8721 22.2101C18.8008 22.2814 18.8008 22.3963 18.8721 22.4675L19.2401 22.8355L18.4153 23.6603C17.939 23.4435 17.4837 23.1861 17.0568 22.8835C18.6553 21.3723 20.0481 19.5854 21.2073 17.5577ZM27.5455 14.2944C27.9979 15.2508 28.2372 16.2966 28.2662 17.3519C28.2597 17.341 28.2619 17.3272 28.2524 17.3177C28.1812 17.2464 28.0662 17.2464 27.995 17.3177L27.7208 17.5919L27.4837 17.3548C27.4124 17.2835 27.2975 17.2835 27.2262 17.3548C27.155 17.4261 27.155 17.541 27.2262 17.6123L27.4633 17.8494L27.2262 18.0864C27.155 18.1577 27.155 18.2726 27.2262 18.3439C27.2975 18.4152 27.4124 18.4152 27.4837 18.3439L27.7208 18.1068L28.2037 18.5897C28.1426 19.0435 28.0481 19.4923 27.9041 19.9286C27.8997 19.9228 27.9012 19.9141 27.8961 19.9083L27.2212 19.2334L27.4219 19.0326C27.5913 18.8639 27.3353 18.605 27.1644 18.7752L26.9637 18.9759L26.8052 18.8174C26.7339 18.7461 26.619 18.7461 26.5484 18.8174C26.4772 18.8886 26.4772 19.0035 26.5484 19.0741L26.707 19.2326L25.899 20.0406C25.835 20.0174 25.7644 20.0188 25.7128 20.0697C25.6612 20.1214 25.6604 20.1919 25.6837 20.2559L25.3208 20.6188C23.9746 19.4406 22.7426 18.1577 21.6437 16.9577L27.5426 14.2959C27.5441 14.2959 27.5448 14.2944 27.5455 14.2944ZM28.2539 18.1243L27.979 17.8494L28.2532 17.5752C28.2648 17.5635 28.2633 17.5461 28.2713 17.5323C28.2713 17.7294 28.2677 17.9264 28.2539 18.1243ZM26.1775 20.277L26.9644 19.4901L27.4648 19.9904C27.4641 19.9912 27.4633 19.9912 27.4619 19.9919L26.6764 20.7774L26.1775 20.277ZM24.3797 23.2828L23.9841 22.8872L24.5099 22.3614L24.9055 22.757L24.3797 23.2828ZM19.9179 24.1424C19.9092 24.1512 19.9113 24.1643 19.9048 24.1744C19.5179 24.0814 19.1368 23.9701 18.7681 23.8224L19.4982 23.0923L20.2328 23.8268L19.9179 24.1424ZM20.4902 24.0843L20.7353 24.3286C20.5935 24.3097 20.4532 24.2879 20.3128 24.2617L20.4902 24.0843ZM21.1935 24.3752C21.1993 24.3221 21.1884 24.2683 21.1477 24.2275L20.747 23.8268L21.6386 22.9352L22.5302 23.8268L22.267 24.0901C22.1957 24.1614 22.1957 24.2763 22.267 24.3475C22.2837 24.3643 22.3077 24.3643 22.3281 24.373C21.6008 24.429 21.5332 24.3999 21.1935 24.3752ZM22.787 24.0843L22.9848 24.2821C22.8139 24.3112 22.6481 24.3519 22.4728 24.3686C22.4895 24.3599 22.5099 24.3614 22.5237 24.3475L22.787 24.0843ZM25.347 23.3992C24.7659 23.7803 24.0873 24.0494 23.3608 24.2159C23.3593 24.1715 23.3441 24.1264 23.3099 24.0923L23.0444 23.8268L23.7273 23.1439L24.1542 23.5708C24.1477 23.6246 24.1579 23.6792 24.1993 23.7199C24.2481 23.7686 24.2866 23.7723 24.3484 23.765C24.3899 23.8064 24.427 23.8334 24.4924 23.8334C24.539 23.8334 24.5855 23.8159 24.6212 23.7803C24.6859 23.7155 24.6837 23.6174 24.6306 23.5461L26.0255 22.1512C26.1593 22.2552 26.2939 22.3577 26.4299 22.4588C26.099 22.8174 25.7412 23.1403 25.347 23.3992ZM26.8924 21.8923C26.4488 21.5628 26.0117 21.2224 25.5913 20.8632L25.9208 20.5337L26.4306 21.0435C26.3855 21.1141 26.3833 21.205 26.4452 21.2668C26.5055 21.3272 26.5775 21.3395 26.6684 21.2806L26.8873 21.4995C26.9586 21.5708 27.0735 21.5708 27.1448 21.4995C27.2161 21.4283 27.2161 21.3134 27.1448 21.2421L26.9361 21.0334L27.7215 20.2479C27.7332 20.2363 27.7317 20.2188 27.7397 20.205C27.7506 20.2072 27.7593 20.2174 27.7702 20.2174C27.7804 20.2174 27.7884 20.2072 27.7986 20.2057C27.7302 20.3883 27.6699 20.573 27.587 20.7497C27.3892 21.1643 27.1506 21.5388 26.8924 21.8923ZM26.9492 13.2414C27.0415 13.3737 27.1142 13.517 27.1972 13.6544L21.4233 16.2595L20.7928 10.029C23.203 10.0435 25.5644 11.2566 26.9492 13.2414ZM17.0335 11.0544C17.9775 10.5039 19.0248 10.1635 20.0655 10.0632L20.7324 16.6515C20.7121 16.6857 20.6895 16.7199 20.6815 16.7599C20.6662 16.8355 20.683 16.909 20.7135 16.9781C19.5441 19.0741 18.1172 20.9046 16.4757 22.4384C16.0197 22.0494 15.6059 21.6101 15.2459 21.125C13.2161 18.3934 12.4277 13.7403 17.0335 11.0544Z" fill="black"/>
<path d="M26.0651 29.2585C26.2659 29.2585 26.4288 29.0956 26.4288 28.8949C26.4288 28.6942 26.2659 28.5312 26.0651 28.5312H13.9379C13.7371 28.5312 13.5742 28.6942 13.5742 28.8949C13.5742 29.0956 13.7371 29.2585 13.9379 29.2585H26.0651Z" fill="black"/>
<path d="M13.4277 31.8881C13.4277 32.0888 13.5906 32.2517 13.7914 32.2517H33.2168C33.4176 32.2517 33.5805 32.0888 33.5805 31.8881C33.5805 31.6873 33.4176 31.5244 33.2168 31.5244H13.7914C13.5906 31.5244 13.4277 31.6873 13.4277 31.8881Z" fill="black"/>
<path d="M14.2308 35.8298H33.0723C33.273 35.8298 33.4359 35.6669 33.4359 35.4662C33.4359 35.2654 33.273 35.1025 33.0723 35.1025H14.2308C14.0301 35.1025 13.8672 35.2654 13.8672 35.4662C13.8672 35.6669 14.0301 35.8298 14.2308 35.8298Z" fill="black"/>
<path d="M33.098 37.9502H14.3031C14.1024 37.9502 13.9395 38.1131 13.9395 38.3138C13.9395 38.5146 14.1024 38.6775 14.3031 38.6775H33.098C33.2987 38.6775 33.4616 38.5146 33.4616 38.3138C33.4616 38.1131 33.2987 37.9502 33.098 37.9502Z" fill="black"/>
</svg>

<svg xmlns="http://www.w3.org/2000/svg" width="48" height="48" fill="none" viewBox="0 0 48 48"><path fill="#000" d="m14.16 41.356 18.962.515c3.698.094 5.113-1.002 4.957-5.031l-.867-22.542a.37.37 0 0 0-.062-.19c-.79-1.16-4.858-6.923-6.016-7.707a.359.359 0 0 0-.67-.078 170 170 0 0 0-16.89.289c-2.574.173-3.222 1.057-3.272 3.257 0 0-.01 2.251-.392 27.227-.045 3.005.837 4.167 4.25 4.26M32.545 13.09l.441.442-.548.548-.568-.568.673-.673a.18.18 0 0 0 .002.252m-.365 1.248-.029.029c-.024.024-.027.055-.035.086a3.6 3.6 0 0 1-.946-.242l.442-.441zm.613.166a.18.18 0 0 0-.049-.117l-.05-.05.549-.548.502.502c-.04.069-.042.154.017.214.01.01.026.008.037.015q-.504.016-1.006-.016m.707-.972.45-.45.49.49-.45.45zm.902.966a.18.18 0 0 0-.045-.11l-.11-.11.45-.45.46.461a.182.182 0 1 0 .258-.257l-.46-.462.553-.553c.27.386.538.77.794 1.143-.62.165-1.256.284-1.9.338m.895-1.783-.6.6-.489-.49.007-.007a.182.182 0 1 0-.257-.258l-.007.008-.088-.088a.182.182 0 1 0-.257.258l.087.087-.45.45-.442-.441a.18.18 0 0 0-.251-.002l.404-.405a.182.182 0 1 0-.257-.257l-1.085 1.085-.344-.343c-.168-.17-.427.086-.257.257l.343.343-.512.512c-.89-.632-.72-1.822-.524-2.905L31 7.317c1.57 1.699 3.014 3.587 4.296 5.397m-24.66 24.392c.381-24.952.392-27.22.392-27.22.04-1.77.36-2.4 2.594-2.548a168 168 0 0 1 16.689-.296l-.708 3.947c-.549 3.049.345 4.276 3.864 4.276 1.025 0 2.052-.14 3.038-.403l.847 22.003c.13 3.386-.738 4.382-4.211 4.276l-18.962-.515c-3.008-.08-3.584-.915-3.543-3.52"/><path fill="#000" d="M16.193 23.136c.041.062.063.101.184.14 1.435 1.1 3.19 1.77 5.01 1.848 1.515.067 3.092-.286 4.36-1.117 1.048-.688 1.91-1.707 2.495-2.947 1.237-2.624.965-5.856-.696-8.235-2.3-3.297-7.014-4.654-10.879-2.4-4.95 2.888-4.327 8.006-2.005 11.133a8.7 8.7 0 0 0 1.53 1.578m5.014-5.578c1.112 1.21 2.349 2.5 3.713 3.686.005.008.003.017.01.023.008.008.02.006.03.012q.38.33.775.647l-.573.573-.396-.396.167-.167a.182.182 0 1 0-.257-.258l-.168.168-.42-.42a.182.182 0 1 0-.257.258l.42.42-.525.526-.68-.681a.182.182 0 1 0-.257.257l.68.681-.683.683-.891-.892.9-.9a.182.182 0 1 0-.256-.258l-.901.901-.367-.367a.182.182 0 1 0-.257.258l.367.366-.892.892-.734-.735 1.461-1.46a.182.182 0 1 0-.257-.257l-1.462 1.46-.367-.368a.182.182 0 1 0-.258.258l.368.367-.825.825a8.3 8.3 0 0 1-1.358-.776c1.598-1.512 2.991-3.299 4.15-5.326m6.339-3.264c.452.957.691 2.003.72 3.058-.006-.011-.004-.025-.014-.034a.18.18 0 0 0-.257 0l-.274.274-.237-.237a.182.182 0 1 0-.258.257l.237.237-.237.237a.182.182 0 1 0 .258.258l.237-.237.483.483a7.4 7.4 0 0 1-.3 1.339c-.004-.006-.003-.015-.008-.02l-.675-.676.2-.2c.17-.17-.086-.428-.257-.258l-.2.2-.159-.158a.18.18 0 0 0-.257 0 .18.18 0 0 0 0 .257l.159.159-.808.808c-.064-.024-.135-.022-.186.029-.052.051-.053.122-.03.186l-.362.363c-1.346-1.178-2.578-2.461-3.677-3.661l5.899-2.662zm.708 3.83-.275-.275.274-.274c.012-.011.01-.029.018-.043q.002.295-.017.592m-2.077 2.153.787-.787.5.5-.002.002-.786.785zm-1.797 3.006-.396-.396.526-.526.395.396zm-4.462.86c-.009.008-.007.021-.013.031a8 8 0 0 1-1.137-.352l.73-.73.735.735zm.572-.059.245.245a8 8 0 0 1-.422-.067zm.704.291a.18.18 0 0 0-.046-.148l-.401-.4.892-.892.891.892-.263.263a.18.18 0 0 0 0 .258c.017.016.04.016.061.025-.727.056-.795.027-1.134.002m1.593-.29.198.197c-.171.03-.337.07-.512.087.017-.01.037-.008.05-.021zm2.56-.686c-.581.381-1.26.65-1.986.817a.18.18 0 0 0-.051-.124l-.266-.265.683-.683.427.427a.17.17 0 0 0 .045.149c.05.049.088.052.15.045.04.041.078.068.143.068a.18.18 0 0 0 .13-.053c.064-.065.062-.163.009-.234l1.395-1.395q.2.156.404.308c-.331.358-.689.681-1.083.94m1.545-1.507c-.443-.33-.88-.67-1.3-1.029l.329-.33.51.51c-.046.071-.048.162.014.224.06.06.133.073.223.014l.22.219a.182.182 0 1 0 .257-.258l-.209-.209.785-.785c.012-.012.01-.03.019-.043.01.002.02.012.03.012s.018-.01.029-.011c-.069.182-.13.367-.212.544-.198.414-.436.789-.695 1.142m.057-8.65c.092.132.165.275.248.412l-5.774 2.605-.63-6.23c2.41.014 4.771 1.228 6.156 3.212m-9.916-2.188a7.5 7.5 0 0 1 3.032-.99l.667 6.587c-.02.035-.043.069-.05.109a.36.36 0 0 0 .032.218c-1.17 2.096-2.597 3.927-4.238 5.46a8 8 0 0 1-1.23-1.313c-2.03-2.732-2.818-7.385 1.787-10.07M26.065 29.259a.364.364 0 0 0 0-.728H13.938a.364.364 0 0 0 0 .728zM13.428 31.888c0 .2.163.364.363.364h19.426a.364.364 0 0 0 0-.728H13.79c-.2 0-.363.163-.363.364M14.23 35.83h18.842a.364.364 0 0 0 0-.727H14.231a.364.364 0 0 0 0 .727M33.098 37.95H14.303a.364.364 0 0 0 0 .727h18.795a.364.364 0 0 0 0-.727"/></svg>
